X:55
T:Kitty Fisher. THO2.055
O:London
M:2/4
L:1/8
B:Thompson's Compleat Coll. of 200 Favourite Country Dances, vol.2,1765
Z:Transcribed and edited by Fynn Titford-Mock, 2007
Z:abc's:AK/Fiddler's Companion/VMP 2009
K:G
G/A/B/c/ dB|Gg g2|G/A/B/c/ dB|FA A2|G/A/B/c/ dB|Ggge|fde^c|d2D2:|
|:d/e/f/g/ a=c|Bg g2|G/A/B/c/ dG|FA A2|G/A/B/c/ dB|Ggge|dBcA|G2 [G,2G2]:|
%#55 is missing from Fynn's transcriptions

